logos/rum.svg

<?xml version="1.0" encoding="UTF-8"?>
<svg width="512px" height="197px" viewBox="0 0 512 197" version="1.1" xmlns="http://www.w3.org/2000/svg" xmlns:xlink="http://www.w3.org/1999/xlink" preserveAspectRatio="xMidYMid">
    <defs>
        <linearGradient x1="50%" y1="0%" x2="50%" y2="100%" id="linearGradient-1">
            <stop stop-color="#883030" offset="0%"></stop>
            <stop stop-color="#FF6565" offset="100%"></stop>
        </linearGradient>
    </defs>
    <g>
        <path d="M384.588481,0 L389.908657,0 C410.349858,27.2621565 422.442244,61.0246894 422.442244,97.5841584 C422.442244,134.152856 410.343752,167.923206 389.893174,195.188961 L389.270907,196.013201 L383.923807,196.013201 C405.408827,168.890263 418.217822,134.716622 418.217822,97.5841584 C418.217822,61.2037021 405.92239,27.6634375 385.218443,0.8116396 L384.588481,0 L389.908657,0 L384.588481,0 Z M123.781112,0 L129.101288,0 C108.017026,26.9861462 95.4719472,60.8362227 95.4719472,97.5841584 C95.4719472,134.345298 108.026043,168.206495 129.124018,195.197402 L129.765962,196.013201 L124.418862,196.013201 C103.591666,168.605149 91.2475248,134.522237 91.2475248,97.5841584 C91.2475248,61.3902841 103.099273,27.9376868 123.170385,0.819811103 L123.781112,0 L129.101288,0 L123.781112,0 Z M76.039604,27.8811881 L5.99202683,98.0066007 L76.039604,168.132013 L70.0475776,168.132013 L0,98.0066007 L70.0475776,27.8811881 L76.039604,27.8811881 Z M441.952422,27.8811881 L512,98.0066007 L441.952422,168.132013 L435.960396,168.132013 L506.007974,98.0066007 L435.960396,27.8811881 L441.952422,27.8811881 Z M234.925583,27.8811881 L234.925583,140.180418 C234.925583,147.925231 236.835071,153.733754 240.654105,157.606161 C244.473137,161.478567 249.165947,163.414742 254.732673,163.414742 C260.2994,163.414742 264.99221,161.478567 268.811242,157.606161 C272.630275,153.733754 274.539763,147.925231 274.539763,140.180418 L274.539763,27.8811881 L278.811881,27.8811881 L278.811881,140.761276 C278.811881,149.28057 276.352202,155.992641 271.432769,160.89769 C267.16063,165.157337 261.593987,167.287129 254.732673,167.287129 C247.87136,167.287129 242.304716,165.157337 238.032577,160.89769 C235.70232,158.574246 233.889925,155.734524 232.595337,152.378438 C231.300749,149.022352 230.653465,145.150004 230.653465,140.761276 L230.653465,27.8811881 L234.925583,27.8811881 Z M179.459723,27.8811881 C182.305225,27.8811881 185.247689,28.2035538 188.287202,28.8482961 C191.326715,29.4930376 194.107505,31.072632 196.629654,33.5871248 C199.151804,36.1016185 201.188894,39.808828 202.740985,44.7088665 C204.293077,49.6089042 205.069112,56.3141196 205.069112,64.824712 C205.069112,70.7563368 204.616424,75.8174847 203.711038,80.0083061 C202.805651,84.1991283 201.544595,87.6484461 199.927833,90.3563617 C198.311071,93.0642773 196.403319,95.1596568 194.204522,96.6425634 C192.005726,98.1254691 189.612954,99.1248044 187.026134,99.640598 L209.531353,165.59736 L204.48708,165.59736 L182.369882,100.414284 L161.416746,100.414284 L161.416746,165.59736 L157.148515,165.59736 L157.148515,27.8811881 L179.459723,27.8811881 Z M309.273392,27.8811881 L334.3271,112.457448 L359.205523,27.8811881 L363.475615,27.8811881 L363.475615,165.59736 L359.205523,165.59736 L359.205523,44.3623684 L336.073956,119.807469 L332.580245,119.807469 L309.273392,44.3623684 L309.273392,165.59736 L305.0033,165.59736 L305.0033,27.8811881 L309.273392,27.8811881 Z M179.653734,31.7496202 L161.416746,31.7496202 L161.416746,96.545852 L179.653734,96.545852 C186.896829,96.545852 192.232065,94.1281069 195.659601,89.2925432 C199.087138,84.4569786 200.80088,76.3011168 200.80088,64.824712 C200.80088,53.2193584 199.216477,44.8056033 196.047623,39.583194 C192.878769,34.3607855 187.414193,31.7496202 179.653734,31.7496202 Z" fill="url(#linearGradient-1)" fill-rule="nonzero"></path>
    </g>
</svg>

<svg width="512" height="197" xmlns="http://www.w3.org/2000/svg" preserveAspectRatio="xMidYMid">
	<defs>
		<linearGradient x1="50%" y1="0%" x2="50%" y2="100%" id="a">
			<stop stop-color="#883030" offset="0%"/>
			<stop stop-color="#FF6565" offset="100%"/>
		</linearGradient>
	</defs>
	<path d="M384.588 0h5.32c20.442 27.262 32.534 61.025 32.534 97.584 0 36.569-12.098 70.34-32.549 97.605l-.622.824h-5.347c21.485-27.123 34.294-61.296 34.294-98.429 0-36.38-12.296-69.92-33-96.772l-.63-.812h5.32-5.32ZM123.781 0h5.32c-21.084 26.986-33.63 60.836-33.63 97.584 0 36.761 12.555 70.622 33.653 97.613l.642.816h-5.347c-20.827-27.408-33.171-61.49-33.171-98.429 0-36.194 11.851-69.646 31.922-96.764l.611-.82h5.32-5.32ZM76.04 27.881 5.992 98.007l70.048 70.125h-5.992L0 98.007 70.048 27.88h5.992Zm365.912 0L512 98.007l-70.048 70.125h-5.992l70.048-70.125L435.96 27.88h5.992Zm-207.026 0v112.3c0 7.744 1.91 13.553 5.728 17.425 3.82 3.873 8.512 5.809 14.079 5.809 5.566 0 10.26-1.936 14.078-5.809 3.82-3.872 5.729-9.68 5.729-17.426V27.881h4.272v112.88c0 8.52-2.46 15.232-7.38 20.137-4.271 4.26-9.838 6.39-16.7 6.39-6.86 0-12.427-2.13-16.7-6.39-2.33-2.324-4.142-5.163-5.437-8.52-1.294-3.356-1.942-7.228-1.942-11.617V27.881h4.273Zm-55.466 0c2.845 0 5.788.323 8.827.967 3.04.645 5.82 2.225 8.343 4.74 2.522 2.514 4.559 6.22 6.111 11.12 1.552 4.9 2.328 11.606 2.328 20.117 0 5.931-.453 10.992-1.358 15.183-.905 4.191-2.166 7.64-3.783 10.348-1.617 2.708-3.525 4.804-5.723 6.287a19.556 19.556 0 0 1-7.179 2.998l22.505 65.956h-5.044l-22.117-65.183h-20.953v65.183h-4.268V27.881h22.31Zm129.813 0 25.054 84.576 24.879-84.576h4.27v137.716h-4.27V44.362l-23.132 75.445h-3.494l-23.307-75.445v121.235h-4.27V27.881h4.27Zm-129.62 3.869h-18.236v64.796h18.237c7.243 0 12.578-2.418 16.006-7.253 3.427-4.836 5.14-12.992 5.14-24.468 0-11.606-1.584-20.02-4.752-25.242-3.17-5.222-8.634-7.833-16.394-7.833Z" fill="url(#a)"/>
</svg>
